icon-themes/breeze_svg/cmd/lc_actionmode.svg

<svg viewBox="0 0 24 24" xmlns="http://www.w3.org/2000/svg"><path d="m12 4-3 6h-5l4 4-1 6 5-3s3.9643-2.983 4-3l4-4h-5zm7 8-1 1-5 5v2h2v-.03125l1-.96875 4-4 1-1zm-.28125 1.6875.5625.59375-4.96875 5-.59375-.59375z" fill="#4d4d4d"/></svg>

<svg xmlns="http://www.w3.org/2000/svg" viewBox="0 0 24 24">
 <path 
     style="fill:#4d4d4d" 
     d="M 12 4 L 9 10 L 4 10 L 8 14 L 7 20 L 12 17 C 12 17 15.9643 14.017 16 14 L 20 10 L 15 10 L 12 4 z M 19 12 L 18 13 L 13 18 L 13 20 L 15 20 L 15 19.96875 L 16 19 L 20 15 L 21 14 L 19 12 z M 18.71875 13.6875 L 19.28125 14.28125 L 14.3125 19.28125 L 13.71875 18.6875 L 18.71875 13.6875 z "
     />
 </svg>
